X: 2054
T: Zülüf Dökülmüş Yüze
C: (Anonim)
O: Turkey
F: http://compmusic.upf.edu/node/140
N: hicaz--turku--musemmen_ii--zuluf_dokulmus_yuze--kirsehir
N: makam= hicaz
N: form= turku
N: usul= musemmen_ii = 8/8
M: 8/8
L: 1/16
K: C _7/8B ^f ^c 
Q: 1/4=96
%%MIDI tuningsystem comma53
Gd^3/4cB B2B2 B2B2 B2B2  | Gd^3/4cB B2B2 B2B2 B2B2  | \
w:  ARANAĞME  |   | 
G{e}d^3/4cB B2B2 A2{B}AG dcde  | 
w:   | 
c2BA BABG A4 A2AB  | GAG2 c.B/.A/.BG A4 .A2.A2  | 
w:   |   | 
d2g^3/4f gfgf gfgf gf/e/fe  | e^3/4fgf g/a/g/f/(3g^1/4fe e{g}=f3 fed2  | 
w:   |   | 
^3/4cde2 e4 ed^3/4f2 f2e/d/c/B/  | \
w:   | 
B2{^3/4c}BA .BABG A4 z/.d/.c/.d/.B/.c/A/B/  | 
w:   | 
GAG2 ^3/4c3/2B1/4A1/4.BG A.A.B.c .d.e.^3/4f.g  | \
w:   | 
g/a/a7 a2{=b}ba a4  | 
w:  Zü *  lüf  dö *  *  kül  | 
a3/2=c'/=ba ag/^3/4f/gf f4 dfga  | \
w:  müş  *  yü *  ze  a *  *  *  man    | 
a2=ba a2g/^3/4f/g/f/ gf3 f4  | 
w:  Kaş lar  *  *  *  *  *  *  ya *  kış  | 
a2ag g^3/4ff2 f3/2e/d2 d4  | d4 d2(3^3/4fed d4 ^3/4C1/4D1/4E1/4^3/4F1/4G1/4A1/4B1/4^3/4c1/4d2  | 
w:  mış  gö *  ze  *  a man_  |  *  *  a *  *  man   SAZ  | 
ddg^3/4f gfg2 gfg2 g^1/4f/e/=fe  | \
w:  U san *  *  *  *  *  dım  *  *  bu   | 
e^3/4fgf {a}ggfe e/g/=f3 (3ffed2  | 
w:  ca nım *  *  *  dan_ a *  *  man_ *  a man    | 
^3/4cde2 e4 eee{g}=f/e/ d/c/B/A/B2  | \
w:  Derd_ *  i *  le  ge  | 
B2BA B/B/AA2 A4 z/d/^3/4c/d/B/d/A/d/  | 
w:  ze  ge *  *  *  *  *  ze   SAZ  | 
GAG2 ^3/4c3/2B1/4A1/4BG A2z/A/B/c/ d/e/=f/g/a/b/^3/4c'/d'/  | 
w:   | 
ddg^3/4f gfg2 gfg2 g^1/4f/e/=fe  | \
w:  U san *  *  *  *  *  dım  *  *  bu   | 
e^3/4fgf {a}ggfe e/g/=f3 (3ffed2  | 
w:  ca nım *  *  *  dan_ a *  *  man_ *  a man    | 
^3/4cde2 e4 eee{g}=f/e/ d/c/B/A/B2  | \
w:  Derd_ *  i *  le  ge  | 
B2BA B/B/AA2 A4 z/d/^3/4c/d/B/d/A/d/  | 
w:  ze  ge *  *  *  *  *  ze   SAZ  | 
GAG2 ^3/4c3/2B1/4A1/4BG A3A2A3  | \
w:   | 
Gd^3/4cB B2B2 B2B2 B2B2  | 
w:  ARANAĞME  | 
Gd^3/4cB B2B2 B2B2 B2B2  | G{e}d^3/4cB B2B2 A2{B}AG dcde  | 
w:   |   | 
c2BA BABG A4 A2AB  | GAG2 c.B/.A/.BG A4 .A2.A2  | 
w:   |   | 
d2g^3/4f gfgf gfgf gf/e/fe  | e^3/4fgf g/a/g/f/(3g^1/4fe e{g}=f3 fed2  | 
w:   |   | 
^3/4cde2 e4 ed^3/4f2 f2e/d/c/B/  | \
w:   | 
B2{^3/4c}BA .BABG A4 z/.d/.c/.d/.B/.c/A/B/  | 
w:   | 
GAG2 ^3/4c3/2B1/4A1/4.BG A.A.B.c .d.e.^3/4f.g  | \
w:   | 
g/a/a7 a2{=b}ba a4  | 
w:  Zü *  lüf  dö *  *  kül  | 
a3/2=c'/=ba ag/^3/4f/gf f4 dfga  | \
w:  müş  *  yü *  ze  a *  *  *  man    | 
a2=ba a2g/^3/4f/g/f/ gf3 f4  | 
w:  Kaş lar  *  *  *  *  *  *  ya *  kış  | 
a2ag g^3/4ff2 f3/2e/d2 d4  | d4 d2(3^3/4fed d4 ^3/4C1/4D1/4E1/4^3/4F1/4G1/4A1/4B1/4^3/4c1/4d2  | 
w:  mış  gö *  ze  *  a man_  |  *  *  a *  *  man   SAZ  | 
ddg^3/4f gfg2 gfg2 g^1/4f/e/=fe  | \
w:  U san *  *  *  *  *  dım  *  *  bu   | 
e^3/4fgf {a}ggfe e/g/=f3 (3ffed2  | 
w:  ca nım *  *  *  dan_ a *  *  man_ *  a man    | 
^3/4cde2 e4 eee{g}=f/e/ d/c/B/A/B2  | \
w:  Derd_ *  i *  le  ge  | 
B2BA B/B/AA2 A4 z/d/^3/4c/d/B/d/A/d/  | 
w:  ze  ge *  *  *  *  *  ze   SAZ  | 
GAG2 ^3/4c3/2B1/4A1/4BG A2z/A/B/c/ d/e/=f/g/a/b/^3/4c'/d'/  | 
w:   | 
ddg^3/4f gfg2 gfg2 g^1/4f/e/=fe  | \
w:  U san *  *  *  *  *  dım  *  *  bu   | 
e^3/4fgf {a}ggfe e/g/=f3 (3ffed2  | 
w:  ca nım *  *  *  dan_ a *  *  man_ *  a man    | 
^3/4cde2 e4 eee{g}=f/e/ d/c/B/A/B2  | \
w:  Derd_ *  i *  le  ge  | 
B2BA B/B/AA2 A4 z/d/^3/4c/d/B/d/A/d/  | 
w:  ze  ge *  *  *  *  *  ze   SAZ  | 
GAG2 ^3/4c3/2B1/4A1/4BG A3A2A3  | |


